icons/eye.svg

<svg xmlns="http://www.w3.org/2000/svg" width="96" height="96"><path d="M7.7 42.4c6.4-7 13.8-13 22-17.6C35.3 21.7 41.6 20 48 20s12.7 1.7 18.3 4.8c8.2 4.6 15.6 10.6 22 17.6 1.4 1.5 2.1 3.5 2.1 5.6 0 2.1-.7 4.1-2.1 5.6-6.4 7-13.8 13-22 17.6C60.7 74.3 54.4 76 48 76s-12.7-1.7-18.3-4.8c-8.2-4.6-15.6-10.6-22-17.6-1.4-1.5-2.1-3.5-2.1-5.6 0-2.1.7-4.1 2.1-5.6zm6 5.3c5.7-6.3 12.5-11.7 20-15.9C38 29.3 43 28 48 28s10 1.3 14.3 3.8c7.5 4.2 14.3 9.6 20 15.9.1.1.1.2.1.3 0 .1 0 .2-.1.3-5.7 6.3-12.5 11.7-20 15.9C58 66.7 53 68 48 68s-10-1.3-14.3-3.8c-7.5-4.2-14.3-9.6-20-15.9-.1-.1-.1-.2-.1-.3 0-.1 0-.2.1-.3zM36 48c0-3.2 1.3-6.2 3.5-8.5 2.3-2.2 5.3-3.5 8.5-3.5s6.2 1.3 8.5 3.5c2.2 2.3 3.5 5.3 3.5 8.5s-1.3 6.2-3.5 8.5C54.2 58.7 51.2 60 48 60s-6.2-1.3-8.5-3.5C37.3 54.2 36 51.2 36 48zm8 0c0-1.1.4-2.1 1.2-2.8.7-.8 1.7-1.2 2.8-1.2 1.1 0 2.1.4 2.8 1.2.8.7 1.2 1.7 1.2 2.8 0 1.1-.4 2.1-1.2 2.8-.7.8-1.7 1.2-2.8 1.2-1.1 0-2.1-.4-2.8-1.2-.8-.7-1.2-1.7-1.2-2.8z" fill-rule="evenodd" fill="#454545"/></svg>

<?xml version="1.0" standalone="no"?><!-- Generator: Gravit.io --><svg xmlns="http://www.w3.org/2000/svg" xmlns:xlink="http://www.w3.org/1999/xlink" width="96" height="96"><path d=" M 7.7 42.4 C 14.1 35.4 21.5 29.4 29.7 24.8 C 35.3 21.7 41.6 20 48 20 C 54.4 20 60.7 21.7 66.3 24.8 C 74.5 29.4 81.9 35.4 88.3 42.4 C 89.7 43.9 90.4 45.9 90.4 48 C 90.4 50.1 89.7 52.1 88.3 53.6 C 81.9 60.6 74.5 66.6 66.3 71.2 C 60.7 74.3 54.4 76 48 76 C 41.6 76 35.3 74.3 29.7 71.2 C 21.5 66.6 14.1 60.6 7.7 53.6 C 6.3 52.1 5.6 50.1 5.6 48 C 5.6 45.9 6.3 43.9 7.7 42.4 Z  M 13.7 47.7 C 19.4 41.4 26.2 36 33.7 31.8 C 38 29.3 43 28 48 28 C 53 28 58 29.3 62.3 31.8 C 69.8 36 76.6 41.4 82.3 47.7 C 82.4 47.8 82.4 47.9 82.4 48 C 82.4 48.1 82.4 48.2 82.3 48.3 C 76.6 54.6 69.8 60 62.3 64.2 C 58 66.7 53 68 48 68 C 43 68 38 66.7 33.7 64.2 C 26.2 60 19.4 54.6 13.7 48.3 C 13.6 48.2 13.6 48.1 13.6 48 C 13.6 47.9 13.6 47.8 13.7 47.7 Z  M 36 48 C 36 44.8 37.3 41.8 39.5 39.5 C 41.8 37.3 44.8 36 48 36 C 51.2 36 54.2 37.3 56.5 39.5 C 58.7 41.8 60 44.8 60 48 C 60 51.2 58.7 54.2 56.5 56.5 C 54.2 58.7 51.2 60 48 60 C 44.8 60 41.8 58.7 39.5 56.5 C 37.3 54.2 36 51.2 36 48 Z  M 44 48 C 44 46.9 44.4 45.9 45.2 45.2 C 45.9 44.4 46.9 44 48 44 C 49.1 44 50.1 44.4 50.8 45.2 C 51.6 45.9 52 46.9 52 48 C 52 49.1 51.6 50.1 50.8 50.8 C 50.1 51.6 49.1 52 48 52 C 46.9 52 45.9 51.6 45.2 50.8 C 44.4 50.1 44 49.1 44 48 Z " fill-rule="evenodd" fill="#454545" stroke="none"/><mask id="_mask_ZSIjJu49nCnFk7lVJi2DolOBWccQkdHD"><path d=" M 7.7 42.4 C 14.1 35.4 21.5 29.4 29.7 24.8 C 35.3 21.7 41.6 20 48 20 C 54.4 20 60.7 21.7 66.3 24.8 C 74.5 29.4 81.9 35.4 88.3 42.4 C 89.7 43.9 90.4 45.9 90.4 48 C 90.4 50.1 89.7 52.1 88.3 53.6 C 81.9 60.6 74.5 66.6 66.3 71.2 C 60.7 74.3 54.4 76 48 76 C 41.6 76 35.3 74.3 29.7 71.2 C 21.5 66.6 14.1 60.6 7.7 53.6 C 6.3 52.1 5.6 50.1 5.6 48 C 5.6 45.9 6.3 43.9 7.7 42.4 Z  M 13.7 47.7 C 19.4 41.4 26.2 36 33.7 31.8 C 38 29.3 43 28 48 28 C 53 28 58 29.3 62.3 31.8 C 69.8 36 76.6 41.4 82.3 47.7 C 82.4 47.8 82.4 47.9 82.4 48 C 82.4 48.1 82.4 48.2 82.3 48.3 C 76.6 54.6 69.8 60 62.3 64.2 C 58 66.7 53 68 48 68 C 43 68 38 66.7 33.7 64.2 C 26.2 60 19.4 54.6 13.7 48.3 C 13.6 48.2 13.6 48.1 13.6 48 C 13.6 47.9 13.6 47.8 13.7 47.7 Z  M 36 48 C 36 44.8 37.3 41.8 39.5 39.5 C 41.8 37.3 44.8 36 48 36 C 51.2 36 54.2 37.3 56.5 39.5 C 58.7 41.8 60 44.8 60 48 C 60 51.2 58.7 54.2 56.5 56.5 C 54.2 58.7 51.2 60 48 60 C 44.8 60 41.8 58.7 39.5 56.5 C 37.3 54.2 36 51.2 36 48 Z  M 44 48 C 44 46.9 44.4 45.9 45.2 45.2 C 45.9 44.4 46.9 44 48 44 C 49.1 44 50.1 44.4 50.8 45.2 C 51.6 45.9 52 46.9 52 48 C 52 49.1 51.6 50.1 50.8 50.8 C 50.1 51.6 49.1 52 48 52 C 46.9 52 45.9 51.6 45.2 50.8 C 44.4 50.1 44 49.1 44 48 Z " fill-rule="evenodd" fill="white" stroke="none"/></mask><path d=" M 7.7 42.4 C 14.1 35.4 21.5 29.4 29.7 24.8 C 35.3 21.7 41.6 20 48 20 C 54.4 20 60.7 21.7 66.3 24.8 C 74.5 29.4 81.9 35.4 88.3 42.4 C 89.7 43.9 90.4 45.9 90.4 48 C 90.4 50.1 89.7 52.1 88.3 53.6 C 81.9 60.6 74.5 66.6 66.3 71.2 C 60.7 74.3 54.4 76 48 76 C 41.6 76 35.3 74.3 29.7 71.2 C 21.5 66.6 14.1 60.6 7.7 53.6 C 6.3 52.1 5.6 50.1 5.6 48 C 5.6 45.9 6.3 43.9 7.7 42.4 Z  M 13.7 47.7 C 19.4 41.4 26.2 36 33.7 31.8 C 38 29.3 43 28 48 28 C 53 28 58 29.3 62.3 31.8 C 69.8 36 76.6 41.4 82.3 47.7 C 82.4 47.8 82.4 47.9 82.4 48 C 82.4 48.1 82.4 48.2 82.3 48.3 C 76.6 54.6 69.8 60 62.3 64.2 C 58 66.7 53 68 48 68 C 43 68 38 66.7 33.7 64.2 C 26.2 60 19.4 54.6 13.7 48.3 C 13.6 48.2 13.6 48.1 13.6 48 C 13.6 47.9 13.6 47.8 13.7 47.7 Z  M 36 48 C 36 44.8 37.3 41.8 39.5 39.5 C 41.8 37.3 44.8 36 48 36 C 51.2 36 54.2 37.3 56.5 39.5 C 58.7 41.8 60 44.8 60 48 C 60 51.2 58.7 54.2 56.5 56.5 C 54.2 58.7 51.2 60 48 60 C 44.8 60 41.8 58.7 39.5 56.5 C 37.3 54.2 36 51.2 36 48 Z  M 44 48 C 44 46.9 44.4 45.9 45.2 45.2 C 45.9 44.4 46.9 44 48 44 C 49.1 44 50.1 44.4 50.8 45.2 C 51.6 45.9 52 46.9 52 48 C 52 49.1 51.6 50.1 50.8 50.8 C 50.1 51.6 49.1 52 48 52 C 46.9 52 45.9 51.6 45.2 50.8 C 44.4 50.1 44 49.1 44 48 Z " fill-rule="evenodd" fill="none" stroke="none" stroke-width="16" mask="url(#_mask_ZSIjJu49nCnFk7lVJi2DolOBWccQkdHD)"/></svg>
